docs/static/img/logos/aws_kinesis_streams.svg

<?xml version="1.0" encoding="UTF-8"?>
<svg width="64px" height="64px" viewBox="0 0 64 64" version="1.1" xmlns="http://www.w3.org/2000/svg" xmlns:xlink="http://www.w3.org/1999/xlink">
    <!-- Generator: Sketch 63.1 (92452) - https://sketch.com -->
    <title>Icon</title>
    <desc>Created with Sketch.</desc>
    <g id="Icon" stroke="none" stroke-width="1" fill="none" fill-rule="evenodd">
        <g id="Amazon-Kinesis-Data-Streams_dark-bg" fill="#000000" fill-rule="nonzero">
            <g id="Product_Icon">
                <path d="M63.372549,25.7380392 L63.372549,28.2479865 L52.3043137,28.2479865 C48.6284224,28.2539422 44.9547853,28.0654431 41.2988235,27.6831373 L41.2988235,27.6831373 C17.7819608,25.1733333 0.63966605,14.9082353 0.63966605,2.22117647 C0.635906229,1.69240329 0.669455053,1.16400931 0.740392157,0.64 L3.25019608,0.64 C3.16476466,1.16268799 3.12279099,1.69155623 3.12470588,2.22117647 C3.12470588,15.1968627 25.1984314,25.7505882 52.3419608,25.7505882 L63.372549,25.7380392 Z" id="Path"></path>
                <path d="M63.372549,30.7576471 L63.372549,33.267451 L60.7121569,33.267451 C59.8775946,32.3457375 58.9573851,31.5053636 57.9639216,30.7576471 L63.372549,30.7576471 Z" id="Path"></path>
                <path d="M35.4509804,30.3560784 C35.0494118,30.6321569 34.6980392,30.9082353 34.3215686,31.2094118 C33.7605452,31.6522783 33.2243101,32.1256733 32.7152941,32.627451 C32.3137255,33.0290196 31.9247059,33.4556863 31.5607843,33.8823529 C15.6737255,35.3003922 4.55529412,38.8141176 0.62745098,43.9215686 L0.62745098,40.2823529 C6.11137255,35.6266667 16.2509804,33.2172549 26.2023529,31.987451 C16.2509804,30.732549 6.12392157,28.3231373 0.62745098,23.667451 L0.62745098,20.0784314 C4.86901961,25.5372549 17.4933333,29.2015686 35.4509804,30.3560784 Z" id="Path"></path>
                <path d="M63.372549,30.7701961 L63.372549,33.28 L60.7121569,33.28 C59.8775946,32.3582866 58.9573851,31.5179126 57.9639216,30.7701961 L63.372549,30.7701961 Z" id="Path"></path>
                <path d="M63.372549,20.7184314 L63.372549,23.2282353 L58.1772549,23.2282353 C33.0792157,23.2282353 14.7701961,14.707451 14.7701961,2.97411765 C14.7701961,2.97411765 14.7701961,1.53098039 14.7701961,0.677647059 L17.28,0.677647059 C17.28,1.28 17.28,2.52235294 17.28,2.97411765 C17.28,13.0133333 34.8486275,20.7811765 58.1772549,20.7811765 L63.372549,20.7184314 Z" id="Path"></path>
                <path d="M28.6243137,38.6133333 C28.2059093,39.5398927 27.8699695,40.5015206 27.6203922,41.4870588 C12.9631373,45.5654902 3.08705882,53.1576471 3.08705882,61.8290196 C3.08674307,62.3456051 3.12449233,62.8615116 3.2,63.372549 L0.690196078,63.372549 C0.618886941,62.8612012 0.585332144,62.3452962 0.589803922,61.8290196 C0.62745098,51.5639216 11.8713725,42.854902 28.6243137,38.6133333 Z" id="Path"></path>
                <path d="M17.28,60.9505882 C17.28,61.44 17.28,62.8580392 17.28,63.372549 L14.7701961,63.372549 C14.7701961,62.5443137 14.7701961,60.9756863 14.7701961,60.9505882 C14.7701961,55.1278431 19.3129412,50.0956863 26.9803922,46.5192157 C26.9834135,47.4096814 27.0505149,48.2987753 27.1811765,49.1796078 C20.9568627,52.2541176 17.28,56.345098 17.28,60.9505882 Z" id="Path"></path>
                <path d="M46.4313725,29.4901961 C37.0750191,29.4901961 29.4901961,37.0750191 29.4901961,46.4313725 C29.4901961,55.787726 37.0750191,63.372549 46.4313725,63.372549 C55.787726,63.372549 63.372549,55.787726 63.372549,46.4313725 C63.3587269,37.0807504 55.7819947,29.5040182 46.4313725,29.4901961 Z M60.2352941,50.8235294 C59.8136086,52.1665202 59.1871478,53.4363732 58.3780392,54.5882353 L52.1035294,54.5882353 L52.1035294,57.0980392 L56.1694118,57.0980392 C50.6679656,62.1203702 42.2449755,62.1203702 36.7435294,57.0980392 L38.2745098,57.0980392 L38.2745098,54.5882353 L34.5098039,54.5882353 C33.7006953,53.4363732 33.0742345,52.1665202 32.652549,50.8235294 L38.2745098,50.8235294 L38.2745098,48.3137255 L32.1254902,48.3137255 C31.9581699,47.0644009 31.9581699,45.7983442 32.1254902,44.5490196 L39.5294118,44.5490196 L39.5294118,42.0392157 L32.6901961,42.0392157 C33.1118816,40.6962249 33.7383424,39.4263719 34.547451,38.2745098 L48.3513725,38.2745098 L48.3513725,35.7647059 L36.7184314,35.7647059 C42.2198775,30.7423749 50.6428676,30.7423749 56.1443137,35.7647059 L52.0784314,35.7647059 C51.3853682,35.7647059 50.8235294,36.3265446 50.8235294,37.0196078 L50.8235294,43.2941176 C50.8235294,43.9871809 51.3853682,44.5490196 52.0784314,44.5490196 L58.3529412,44.5490196 C59.0460044,44.5490196 59.6078431,43.9871809 59.6078431,43.2941176 L59.6078431,40.5584314 C60.4362368,42.4054772 60.8639269,44.407067 60.862874,46.4313725 C60.8655175,47.0610027 60.823582,47.6900353 60.7372549,48.3137255 L52.0784314,48.3137255 L52.0784314,50.8235294 L60.2352941,50.8235294 Z M57.1607843,38.2745098 L57.1607843,42.0392157 L53.3960784,42.0392157 L53.3960784,38.2745098 L57.1607843,38.2745098 Z" id="Shape"></path>
                <rect id="Rectangle" x="42.0392157" y="42.0392157" width="6.2745098" height="2.50980392"></rect>
                <path d="M48.3137255,57.0980392 L42.0392157,57.0980392 C41.3461525,57.0980392 40.7843137,56.5362005 40.7843137,55.8431373 L40.7843137,49.5686275 C40.7843137,48.8755642 41.3461525,48.3137255 42.0392157,48.3137255 L48.3137255,48.3137255 C49.0067887,48.3137255 49.5686275,48.8755642 49.5686275,49.5686275 L49.5686275,55.8431373 C49.5686275,56.5362005 49.0067887,57.0980392 48.3137255,57.0980392 Z M43.2941176,54.5882353 L47.0588235,54.5882353 L47.0588235,50.8235294 L43.2941176,50.8235294 L43.2941176,54.5882353 Z" id="Shape"></path>
            </g>
        </g>
    </g>
</svg>

<svg width="64" height="64" viewBox="0 0 64 64" xmlns="http://www.w3.org/2000/svg">
  <g fill="#000000" fill-rule="nonzero">
    <path d="M63.373 25.738v2.51H52.304c-3.676.006-7.35-.183-11.005-.565C17.782 25.173.639 14.908.639 2.221.637 1.692.67 1.164.74.64h2.51a9.587 9.587 0 00-.125 1.581c0 12.976 22.073 23.53 49.217 23.53l11.03-.013zM63.373 30.758v2.51h-2.66a19.64 19.64 0 00-2.75-2.51h5.41zM35.451 30.356c-.402.276-.753.552-1.13.853-.56.443-1.097.917-1.606 1.418-.401.402-.79.829-1.154 1.255C15.674 35.3 4.555 38.814.627 43.922v-3.64c5.484-4.655 15.624-7.065 25.575-8.295-9.951-1.254-20.078-3.664-25.575-8.32v-3.589c4.242 5.46 16.866 9.124 34.824 10.278z"/>
    <path d="M63.373 30.77v2.51h-2.66a19.64 19.64 0 00-2.75-2.51h5.41zM63.373 20.718v2.51h-5.196c-25.098 0-43.407-8.52-43.407-20.254V.678h2.51v2.296c0 10.04 17.569 17.807 40.897 17.807l5.196-.063zM28.624 38.613a17.305 17.305 0 00-1.004 2.874C12.963 45.565 3.087 53.157 3.087 61.83c0 .517.037 1.033.113 1.544H.69a10.516 10.516 0 01-.1-1.544C.627 51.564 11.87 42.855 28.624 38.613zM17.28 60.95v2.423h-2.51V60.95c0-5.823 4.543-10.855 12.21-14.432.003.89.07 1.78.201 2.66-6.224 3.075-9.901 7.166-9.901 11.772zM46.431 29.49c-9.356 0-16.94 7.585-16.94 16.941 0 9.357 7.584 16.942 16.94 16.942 9.357 0 16.942-7.585 16.942-16.942-.014-9.35-7.591-16.927-16.942-16.94zm13.804 21.334a13.678 13.678 0 01-1.857 3.764h-6.274v2.51h4.065c-5.501 5.022-13.924 5.022-19.425 0h1.53v-2.51H34.51a13.678 13.678 0 01-1.857-3.764h5.622v-2.51h-6.15a14.18 14.18 0 010-3.765h7.404v-2.51H32.69a13.678 13.678 0 011.857-3.764h13.804v-2.51H36.718c5.502-5.023 13.925-5.023 19.426 0h-4.066c-.693 0-1.254.562-1.254 1.255v6.274c0 .693.561 1.255 1.254 1.255h6.275c.693 0 1.255-.562 1.255-1.255v-2.736a14.333 14.333 0 011.13 7.756h-8.66v2.51h8.157zm-3.074-12.55v3.765h-3.765v-3.764h3.765z"/>
    <path d="M42.039 42.039h6.275v2.51h-6.275zM48.314 57.098h-6.275a1.255 1.255 0 01-1.255-1.255V49.57c0-.693.562-1.255 1.255-1.255h6.275c.693 0 1.255.562 1.255 1.255v6.274c0 .693-.562 1.255-1.255 1.255zm-5.02-2.51h3.765v-3.764h-3.765v3.764z"/>
  </g>
</svg>
